X:1
T:Title
%%score { ( 1 3 ) | ( 2 4 ) }
L:1/8
M:12/8
K:D
V:1 treble nm="Grand Piano"
V:3 treble 
V:2 bass 
V:4 bass 
V:1
 z6 z2[Q:1/4=75] F G2 ^G | A6- A2 z z3 | A6- A2 z z3 | G6- G2 z z3 | F6- F2 z z3 | A6- A2 z z3 | %6
 A6- A2 z z3 | c6- c2 z z3 |[M:4/4] [A,F]8 |[M:2/4] z4 |[M:6/4] z2 [CG] [CG]2 [CG] .[CG]6 | %11
 z2 [DF] [DF]2 [DF] .[DF]6 | z2 F [B,F]2 [B,F] [B,F]2 [DEG] [DEG]2 [DEG] | [CEA]6- [CEA]2 A A2 A | %14
 .d12 | B12 | d4- dF [CA]4- [CA][CA] |[M:4/4] D8 |] %18
V:2
 z12 | z2 [D,D] [D,D]2 [D,D] .[D,D]3 z3 | z2 [D,D] [D,D]2 [D,D] .[D,D]3 z3 | %3
 z2 A,, A,,2 A,, .A,,3 z3 | z2 [D,A,] [D,A,]2 [D,A,] .[D,A,]3 z3 | %5
 z2 [D,D] [D,D]2 [D,D] .[D,D]3 z3 | z2 [D,D] [D,D]2 [D,D] .[D,D]3 z3 | %7
 z2 [C,A,] [C,A,]2 [C,A,] [C,A,]2 [C,A,] C,2 C, |[M:4/4] F,8 |[M:2/4][K:treble] A A2 A | %10
[M:6/4] .A12[K:bass][K:treble] | .A12[K:bass][K:treble] | .d12[K:bass] | .A,,12 | %14
 z2 [D,A,] [D,A,]2 [D,A,] .[D,A,]6 | z2[K:treble] [G,D] [G,D]2 [G,D] [G,D]3 [^G,B,=F]3 | %16
 [A,F]4- [A,F][K:bass][A,D] [A,,E,]4- [A,,E,][A,,G,] |[M:4/4] [D,F,]8 |] %18
V:3
 x12 | z2 F F2 F F2 F A2 d | z2 F F2 F F2 F E2 F | z2 [CE] [CE]2 [CE] [CE]2 E A2 G | %4
 z2 D D2 D D2 F G2 ^G | z2 F F2 F F2 F A2 d | z2 F F2 F F2 G A2 B | %7
 z2 F F2 F F2 C [CFA]2 [B,=F^G] |[M:4/4] x8 |[M:2/4] x4 |[M:6/4] x12 | x12 | x12 | x12 | %14
 z2 F F2 F F2 F G2 A | z2 G G2 G G3 d3 | x12 |[M:4/4] x8 |] %18
V:4
 x12 | x12 | x12 | x12 | x12 | x12 | x12 | x12 |[M:4/4] x8 |[M:2/4][K:treble] x4 | %10
[M:6/4] z2 G,[K:bass] E,2 C, G,,2[K:treble] A A2 A | z2 A,[K:bass] F,2 D, A,,2[K:treble] A A2 A | %12
 z2 B,[K:bass] F,2 D, B,,2 B,, B,,2 B,, | x12 | x12 | x2[K:treble] x10 | x5[K:bass] x7 | %17
[M:4/4] x8 |] %18

